X:107
T:Paddy on the Railroad (aka Merry Blacksmith)
C:Trad, Ir.
M:4/4
L:1/8
%% Q:1/2=112
K:D 
 A2 \
 | "D"d2 dA BAFA | "D"ABdA BAFA | "D"ABde "Bm"f2 ed | "Em"Beed "A7"egfe |
 |  "D"d2 dA BAFA | "D"ABdA BAFA | "D"ABde "A7"fdec | "D"dBAF D2 :| 
 fg \
 |: "D"a2 ag f2 fe | "D"d2 dA BAFA | "D"ABde "Bm"f2ed | "Em"Beed "A7"egfg |
 | "D"a2 ag f2 fe | "D"d2 dA BAFA | "D"ABde "A7"fdec | "D"dBAF D4 :| 
%%%%  A traditional tune.
%%text
%%text
